static/img/menus/ico-air-update.svg

<svg width="16" height="16" viewBox="0 0 16 16" fill="none" xmlns="http://www.w3.org/2000/svg">
<path d="M12 2.66667C12 2.29848 11.7015 2 11.3333 2H4.66666C4.29847 2 3.99999 2.29848 3.99999 2.66667V13.3333C3.99999 13.7015 4.29847 14 4.66666 14H11.3333C11.7015 14 12 13.7015 12 13.3333V2.66667ZM12.6667 13.3333C12.6667 14.0697 12.0697 14.6667 11.3333 14.6667H4.66666C3.93028 14.6667 3.33333 14.0697 3.33333 13.3333V2.66667C3.33333 1.93029 3.93028 1.33334 4.66666 1.33334H11.3333C12.0697 1.33334 12.6667 1.93029 12.6667 2.66667V13.3333Z" fill="currentColor"/>
<path d="M8.66667 3C8.85076 3 9 3.14924 9 3.33333C9 3.51743 8.85076 3.66667 8.66667 3.66667H7.33333C7.14924 3.66667 7 3.51743 7 3.33333C7 3.14924 7.14924 3 7.33333 3H8.66667Z" fill="currentColor"/>
<path d="M5.5775 10.3553V9.11113L5.58401 9.04408C5.61503 8.8921 5.74969 8.7778 5.91083 8.7778H7.15497C7.33907 8.7778 7.48831 8.92704 7.48831 9.11113C7.48831 9.29523 7.33907 9.44447 7.15497 9.44447H6.24417V10.3553L6.23766 10.423C6.20649 10.5748 6.07184 10.6886 5.91083 10.6886C5.74982 10.6886 5.61517 10.5748 5.58401 10.423L5.5775 10.3553Z" fill="currentColor"/>
<path d="M10.1505 8.9972C10.2133 8.82443 10.404 8.73539 10.5769 8.79798C10.75 8.86073 10.8395 9.052 10.7768 9.22507C10.4015 10.2598 9.40967 10.9998 8.24422 10.9998C7.0787 10.9998 6.08699 10.2598 5.71166 9.22507C5.64896 9.05211 5.73804 8.86086 5.91088 8.79798C6.08384 8.73528 6.27509 8.82436 6.33797 8.9972C6.62063 9.7768 7.368 10.3331 8.24422 10.3331C9.12036 10.3331 9.86782 9.7768 10.1505 8.9972Z" fill="currentColor"/>
<path d="M10.0895 6.31112C10.0895 6.12702 10.2388 5.97778 10.4229 5.97778C10.6068 5.97796 10.7562 6.12713 10.7562 6.31112V7.55526C10.7562 7.73924 10.6068 7.88841 10.4229 7.88859H9.17806C8.99396 7.88859 8.84473 7.73935 8.84473 7.55526C8.84488 7.37129 8.99406 7.22192 9.17806 7.22192H10.0895V6.31112Z" fill="currentColor"/>
<path d="M8.08919 5.66666C9.2548 5.66669 10.2465 6.40709 10.6217 7.44205C10.6844 7.61511 10.5949 7.8064 10.4219 7.86914C10.2489 7.93164 10.0582 7.8421 9.99544 7.66927C9.7128 6.88967 8.96539 6.33336 8.08919 6.33333C7.21304 6.33333 6.4656 6.88964 6.18294 7.66927C6.12012 7.84222 5.92887 7.93187 5.75585 7.86914C5.58293 7.80632 5.49395 7.61504 5.55663 7.44205C5.93188 6.40709 6.9236 5.66666 8.08919 5.66666Z" fill="currentColor"/>
</svg>

<svg xmlns="http://www.w3.org/2000/svg" width="16" height="16" fill="none" viewBox="0 0 16 16"><path fill="currentColor" d="M12 2.667A.667.667 0 0 0 11.333 2H4.667A.667.667 0 0 0 4 2.667v10.666c0 .368.298.667.667.667h6.666a.667.667 0 0 0 .667-.667zm.667 10.666c0 .737-.597 1.334-1.334 1.334H4.667a1.333 1.333 0 0 1-1.334-1.334V2.667c0-.737.597-1.334 1.334-1.334h6.666c.737 0 1.334.597 1.334 1.334z"/><path fill="currentColor" d="M8.667 3a.333.333 0 0 1 0 .667H7.333a.333.333 0 0 1 0-.667zM5.578 10.355V9.111l.006-.067a.334.334 0 0 1 .327-.266h1.244a.333.333 0 1 1 0 .666h-.91v.911l-.007.068a.333.333 0 0 1-.654 0z"/><path fill="currentColor" d="M10.15 8.997a.333.333 0 1 1 .627.228 2.694 2.694 0 0 1-5.065 0 .333.333 0 0 1 .626-.228 2.028 2.028 0 0 0 3.812 0M10.09 6.311a.333.333 0 0 1 .666 0v1.244c0 .184-.15.333-.333.334H9.178a.333.333 0 1 1 0-.667h.911z"/><path fill="currentColor" d="M8.09 5.667c1.165 0 2.156.74 2.532 1.775a.334.334 0 0 1-.627.227 2.028 2.028 0 0 0-3.812 0 .334.334 0 0 1-.626-.227 2.69 2.69 0 0 1 2.532-1.775"/></svg>
